src/pos-icons/message-settings-outline.svg

<svg height="24" viewBox="0 0 24 24" width="24" xmlns="http://www.w3.org/2000/svg"><path d="m11 24h2v-2h-2zm-4 0h2v-2h-2zm8 0h2v-2h-2zm5-22h-16c-1.1 0-2 .9-2 2v18l4-4h14c1.11 0 2-.89 2-2v-12c0-1.1-.89-2-2-2m0 14h-14l-2 2v-14h16"/></svg>

<?xml version="1.0" encoding="UTF-8"?><!DOCTYPE svg PUBLIC "-//W3C//DTD SVG 1.1//EN" "http://www.w3.org/Graphics/SVG/1.1/DTD/svg11.dtd"><svg xmlns="http://www.w3.org/2000/svg" xmlns:xlink="http://www.w3.org/1999/xlink" version="1.1" id="mdi-message-settings-outline" width="24" height="24" viewBox="0 0 24 24"><path d="M11 24H13V22H11V24M7 24H9V22H7V24M15 24H17V22H15V24M20 2H4C2.9 2 2 2.9 2 4V22L6 18H20C21.11 18 22 17.11 22 16V4C22 2.9 21.11 2 20 2M20 16H6L4 18V4H20" /></svg>
